X:1
T:Title
%%score ( 1 2 ) ( 3 4 )
L:1/8
Q:1/4=110
M:4/4
K:Ab
V:1 treble nm="Grand Piano, Soprano"
V:2 treble 
V:3 bass nm="Choir Pad, In the Glory Land"
V:4 bass 
V:1
 [CE]2 [Ec]2 [Ec]2 [EA]2 | E2 [DF]2 [DA]2 [CE]2 | z2 c4 A2- | A2 z2 z4 | [Ed]2 [Ec]2 [Ec]2 [EA]2 | %5
w: By~Fred~Coblentz * * *|||||
 E2 [DF]2 [DA]2 [CE]2 | z2 c4 B2- | B2 z2 z4 | [EA]>[EA] [EG]2 [EG]2 [EB]2 | %9
w: ||||
 [EB]2 [EA]2 [EB]2 [Ec]2 | [Ec]>[Ec] [EB]2 [EG]2 [FA]2 | [=DF]2 E6 | [Ed]2 [Ec]2 [Ec]2 [EA]2 | %13
w: ||||
 E2 [DF]2 [DA]2 [CE]2 | z2 c4 B2- | B2 A6- | A6 z2 |] %17
w: ||||
V:2
 x8 | x8 | [CA]>[DB] E2 E2 E2 | E2 [EB]6 | x8 | x8 | [=DA]>[DB] E2 E2 _D2 | D2 [CA]6 | x8 | x8 | %10
 x8 | x8 | x8 | x8 | [=DA]>[DB] E2 E2 _D2 | D2 C2 D2 C2- | C6 z2 |] %17
V:3
 [A,,A,]2 [A,,A,]2 [A,,A,]2 [C,A,]2 | [C,A,]2 [D,A,]2 [F,A,]2 A,2 | A,>A, A,2 A,2 A,2 | %3
 A,2 [E,G,]6 | [E,B,]2 [A,,A,]2 [A,,A,]2 [C,A,]2 | [C,A,]2 [D,A,]2 [F,A,]2 A,2 | %6
 [F,A,]>[F,A,] A,2 A,2 G,2 | G,2 [A,,A,]6 | [C,A,]>[C,A,] [E,B,]2 [E,B,]2 [E,G,]2 | %9
 [E,G,]2 [C,A,]2 [E,G,]2 A,2 | [A,,A,]>[A,,A,] [B,,G,]2 [B,,B,]2 [B,,B,]2 | [B,,A,]2 [E,G,]6 | %12
 [E,B,]2 [A,,A,]2 [A,,A,]2 [C,A,]2 | [C,A,]2 [D,A,]2 [F,A,]2 A,2 | [F,A,]>[F,A,] A,2 A,2 G,2 | %15
 G,2 A,2 F,2 E,2- | E,6 z2 |] %17
V:4
 x8 | x8 | z4 z2 C,2- | C,2 z2 z4 | x8 | x8 | z2 E,4 E,2- | E,2 z2 z4 | x8 | x8 | x8 | x8 | x8 | %13
 x8 | z2 E,4 E,2- | E,2 A,,6- | A,,6 z2 |] %17

